X:1
T:Mauburn
T:Mauburn
T:Public  domain
Z:Public  domain
%%score ( 1 2 ) ( 3 4 )
L:1/8
Q:1/4=130
M:4/4
K:Eb
V:1 treble nm="Unnamed-000"
V:2 treble 
V:3 bass nm="Unnamed-001"
V:4 bass 
V:1
 G2- G2 A2 B4 [DA]2 | G4 F2 G6 | E4 F2 G4 A2 G6 G6 | A4 B2 c4 B2 x2 | A4 G2 A6 | F4 G2 A4 B2 | %6
 G6 G6 | (B4 c2 B4 G2 | B4 c2 B6 | B4 _d2 c4 B2 | A4 G2 F6) | (F2- F2 B2 c4 F2 | B12 | %13
 G2- G2 A2 B4 A2 | G4 F2 G6) | (E4 F2 G4 A2 | G4 G2 G6 | e4 c2 c4 A2 | [EB]8) |] x8 |] %20
V:2
 F2 E2 F2 E2 x4 | E2 D2 C2 E6 | D2 E4 E2 E6 D6 x4 | F4 F2 A2 G2 F2 x2 | F4 E2 F6 | D4 E2 F4 F2 | %6
 F6 E6 | E4 E2 E2 F2 E2 | D4 E2 E6 | E4 F2 E4 =D2 | E4 E2 D6 | E2 D2 F4 x4 | D2 E2 F2 A2 G2 F2 | %13
 F2 E2 F2 E2 D2 x2 | E2 D2 C2 E6 | D2 E4 E2 x4 | E4 F2 E6 | E4 E2 E4 E2 | x8 |] x8 |] %20
V:3
 (E2 D2 C2 D2 C2 B,2 | C2 B,2 A,2 B,6 | C2 B,2 A,2 B,4 C2 B,6 =B,6) | C4 E,2 [D,D]2 E4 D2 | %4
 C4 C2 C6 | B,2- B,2 B,2 C4 B,2 | B,6 B,6 | G,4 A,2 G,2 A,2 B,2 | G,2 G,6 x4 | G,4 A,2 A,4 F,2 | %10
 C4 B,2 B,6 | D2 C2 B,2 =A,2 G,2 A,2 | B,2 C2 D2 F2 E2 D2 | B,2 D2 C2 D2 C2 B,2 | C2 B,2 A,2 B,6 | %15
 C2 B,2 A,2 B,4 C2 | B,4 =B,2 C6 | C4 A,2 A,4 C2 | [E,G,]8 |] x8 |] %20
V:4
 E,4 E,2 E,4 E,2 | E,4 E,2 E,2 F,2 G,2 | A,2 G,2 F,2 E,2 D,2 C,2 E,4 F,2 G,6 | (F,2 x2 C,4 D,2 x4 | %4
 F,4 C,2 F,2 G,2 A,2 | A,2 G,2 F,2 E,2 D,2 x2 | E,6 E,6) | E,2 D,2 C,2 E,4 E,2 | G,4 C,2 E,6 | %9
 E,4 _D,2 A,,4 B,,2 | C,4 E,2 B,,6 | F,4 F,2 F,4 F,2 | B,,12 | E,4 E,2 E,4 E,2 | %14
 E,4 E,2 E,2 F,2 G,2 | A,2 G,2 F,2 E,2 D,2 C,2 | E,4 D,2 C,4 _B,,2 | A,,4 A,,2 A,,4 A,,2 | x8 |] %19
 x8 |] %20

